packages/ui-icons/svg/Line/table-delete-table.svg

<svg viewBox="0 0 1920 1920" version="1.1" xmlns="http://www.w3.org/2000/svg">
    <path d="M1800,1740 C1800,1773 1773.12,1800 1740,1800 L180,1800 C146.88,1800 120,1773 120,1740 L120,180 C120,146.88 146.88,120 180,120 L1740,120 C1773.12,120 1800,146.88 1800,180 L1800,1740 Z M1740,0 L180,0 C80.76,0 0,80.76 0,180 L0,1740 C0,1839.24 80.76,1920 180,1920 L1740,1920 C1839.24,1920 1920,1839.24 1920,1740 L1920,180 C1920,80.76 1839.24,0 1740,0 L1740,0 Z M1504.92,245.388 L960,790.308 L415.08,245.388 L245.4,415.068 L790.32,959.988 L245.4,1504.908 L415.08,1674.588 L960,1129.668 L1504.92,1674.588 L1674.6,1504.908 L1129.68,959.988 L1674.6,415.068 L1504.92,245.388 Z" stroke="none" stroke-width="1" fill-rule="evenodd"/>
</svg>

<svg viewBox="0 0 1920 1920" version="1.1" xmlns="http://www.w3.org/2000/svg">
    <path d="M1800 1740c0 33-26.88 60-60 60H180c-33.12 0-60-27-60-60V180c0-33.12 26.88-60 60-60h1560c33.12 0 60 26.88 60 60v1560zM1740 0H180C80.76 0 0 80.76 0 180v1560c0 99.24 80.76 180 180 180h1560c99.24 0 180-80.76 180-180V180c0-99.24-80.76-180-180-180zm-235.08 245.388L960 790.308l-544.92-544.92-169.68 169.68 544.92 544.92-544.92 544.92 169.68 169.68L960 1129.668l544.92 544.92 169.68-169.68-544.92-544.92 544.92-544.92-169.68-169.68z" stroke="none" stroke-width="1" fill-rule="evenodd"/>
</svg>
